third_party/noto/noto_2/emoji_u1f512.svg

<svg enable-background="new 0 0 128 128" viewBox="0 0 128 128" xmlns="http://www.w3.org/2000/svg"><path d="M73.45,78.55h0.77c5.58,0,10.11-4.53,10.11-10.11V29.89c0-5.72-4.68-10.4-10.4-10.4H53.9 c-5.63,0-10.23,4.6-10.23,10.23v20.62c0,2.15-1.74,3.89-3.89,3.89h-7.72c-2.15,0-3.89-1.74-3.89-3.89V29.89 C28.18,15.65,39.83,4,54.07,4h20.16c14.14,0,25.6,11.46,25.6,25.6v38.61c0,14.21-11.62,25.83-25.83,25.83h-0.54V78.55z" fill="#BDBDBD"/><g opacity=".2"><path d="M74.22,7c12.46,0,22.6,10.14,22.6,22.6v38.61c0,11.76-8.94,21.47-20.37,22.7v-9.55 c6.17-1.06,10.88-6.45,10.88-12.92V29.89c0-7.39-6.01-13.4-13.4-13.4H53.9c-7.3,0-13.23,5.94-13.23,13.23v20.62 c0,0.49-0.4,0.89-0.89,0.89h-7.72c-0.49,0-0.89-0.4-0.89-0.89V29.89C31.18,17.27,41.45,7,54.07,7H74.22 M74.22,4H54.07 C39.83,4,28.18,15.65,28.18,29.89v20.45c0,2.15,1.74,3.89,3.89,3.89h7.72c2.15,0,3.89-1.74,3.89-3.89V29.72 c0-5.63,4.6-10.23,10.23-10.23h20.03c5.72,0,10.4,4.68,10.4,10.4v38.55c0,5.58-4.53,10.11-10.11,10.11h-0.77v15.49h0.54 c14.21,0,25.83-11.62,25.83-25.83V29.6C99.82,15.46,88.36,4,74.22,4L74.22,4z" fill="#424242"/></g><linearGradient id="a" x1="64" x2="64" y1="123.04" y2="50.312" gradientUnits="userSpaceOnUse"><stop stop-color="#FFA000" offset=".0053611"/><stop stop-color="#FFC107" offset="1"/></linearGradient><path d="m103.1 124h-78.2c-4.04 0-7.32-3.28-7.32-7.32v-59.41c0-4.04 3.28-7.32 7.32-7.32h78.2c4.04 0 7.32 3.28 7.32 7.32v59.41c-0.01 4.04-3.28 7.32-7.32 7.32z" fill="url(#a)"/><g opacity=".2"><path d="m103.1 52.96c2.38 0 4.32 1.94 4.32 4.32v59.41c0 2.38-1.94 4.32-4.32 4.32h-78.2c-2.38 0-4.32-1.94-4.32-4.32v-59.42c0-2.38 1.94-4.32 4.32-4.32h78.2m0-2.99h-78.2c-4.04 0-7.32 3.28-7.32 7.32v59.41c0 4.04 3.28 7.32 7.32 7.32h78.2c4.04 0 7.32-3.28 7.32-7.32v-59.42c-0.01-4.04-3.28-7.31-7.32-7.31z" fill="#424242"/></g></svg>

<svg width="128" height="128" style="enable-background:new 0 0 128 128;" xmlns="http://www.w3.org/2000/svg" xmlns:xlink="http://www.w3.org/1999/xlink">
  <g id="Layer_1">
    <g>
      <path d="M73.45,78.55h0.77c5.58,0,10.11-4.53,10.11-10.11V29.89c0-5.72-4.68-10.4-10.4-10.4H53.9 c-5.63,0-10.23,4.6-10.23,10.23v20.62c0,2.15-1.74,3.89-3.89,3.89h-7.72c-2.15,0-3.89-1.74-3.89-3.89V29.89 C28.18,15.65,39.83,4,54.07,4h20.16c14.14,0,25.6,11.46,25.6,25.6v38.61c0,14.21-11.62,25.83-25.83,25.83h-0.54V78.55z" style="fill:#BDBDBD;"/>
      <g style="opacity:0.2;">
        <path d="M74.22,7c12.46,0,22.6,10.14,22.6,22.6v38.61c0,11.76-8.94,21.47-20.37,22.7v-9.55 c6.17-1.06,10.88-6.45,10.88-12.92V29.89c0-7.39-6.01-13.4-13.4-13.4H53.9c-7.3,0-13.23,5.94-13.23,13.23v20.62 c0,0.49-0.4,0.89-0.89,0.89h-7.72c-0.49,0-0.89-0.4-0.89-0.89V29.89C31.18,17.27,41.45,7,54.07,7H74.22 M74.22,4H54.07 C39.83,4,28.18,15.65,28.18,29.89v20.45c0,2.15,1.74,3.89,3.89,3.89h7.72c2.15,0,3.89-1.74,3.89-3.89V29.72 c0-5.63,4.6-10.23,10.23-10.23h20.03c5.72,0,10.4,4.68,10.4,10.4v38.55c0,5.58-4.53,10.11-10.11,10.11h-0.77v15.49h0.54 c14.21,0,25.83-11.62,25.83-25.83V29.6C99.82,15.46,88.36,4,74.22,4L74.22,4z" style="fill:#424242;"/>
      </g>
      <linearGradient id="SVGID_1_" gradientUnits="userSpaceOnUse" x1="64" x2="64" y1="123.0447" y2="50.312">
        <stop offset="5.361129e-03" style="stop-color:#FFA000"/>
        <stop offset="1" style="stop-color:#FFC107"/>
      </linearGradient>
      <path d="M103.1,124H24.9c-4.04,0-7.32-3.28-7.32-7.32V57.27c0-4.04,3.28-7.32,7.32-7.32h78.2 c4.04,0,7.32,3.28,7.32,7.32v59.41C110.41,120.72,107.14,124,103.1,124z" style="fill:url(#SVGID_1_);"/>
      <g style="opacity:0.2;">
        <path d="M103.1,52.96c2.38,0,4.32,1.94,4.32,4.32v59.41c0,2.38-1.94,4.32-4.32,4.32H24.9 c-2.38,0-4.32-1.94-4.32-4.32V57.27c0-2.38,1.94-4.32,4.32-4.32H103.1 M103.1,49.96H24.9c-4.04,0-7.32,3.28-7.32,7.32v59.41 c0,4.04,3.28,7.32,7.32,7.32h78.2c4.04,0,7.32-3.28,7.32-7.32V57.27C110.41,53.23,107.14,49.96,103.1,49.96L103.1,49.96z" style="fill:#424242;"/>
      </g>
    </g>
  </g>
  <g id="Layer_2" style="display:none;">
    <g style="display:inline;">
      <g style="opacity:0.6;">
        <circle cx="64" cy="64" r="28" style="opacity:0.61;fill:none;stroke:#000000;stroke-width:0.2625;stroke-miterlimit:10;"/>
        <line style="opacity:0.61;fill:none;stroke:#000000;stroke-miterlimit:10;" x1="83.5" x2="83.5" y1="0" y2="128"/>
        <line style="opacity:0.61;fill:none;stroke:#000000;stroke-miterlimit:10;" x1="43.5" x2="43.5" y1="0" y2="128"/>
        <line style="opacity:0.61;fill:none;stroke:#000000;stroke-miterlimit:10;" x1="63.5" x2="63.5" y1="0" y2="128"/>
        <line style="opacity:0.61;fill:none;stroke:#000000;stroke-miterlimit:10;" x1="128" x2="0" y1="64.5" y2="64.5"/>
        <line style="opacity:0.61;fill:none;stroke:#000000;stroke-miterlimit:10;" x1="128" x2="0" y1="44.5" y2="44.5"/>
        <line style="opacity:0.61;fill:none;stroke:#000000;stroke-miterlimit:10;" x1="128" x2="0" y1="83.5" y2="83.5"/>
        <line style="opacity:0.61;fill:none;stroke:#000000;stroke-width:0.25;stroke-miterlimit:10;" x1="128" x2="0" y1="128" y2="0"/>
        <line style="opacity:0.61;fill:none;stroke:#000000;stroke-width:0.25;stroke-miterlimit:10;" x1="0" x2="128" y1="128" y2="0"/>
        <g style="opacity:0.61;">
          <path d="M64,4.26c32.94,0,59.74,26.8,59.74,59.74S96.94,123.74,64,123.74S4.26,96.94,4.26,64S31.06,4.26,64,4.26 M64,4 C30.86,4,4,30.86,4,64s26.86,60,60,60s60-26.86,60-60S97.14,4,64,4L64,4z"/>
        </g>
        <path d="M115.5,108.47c0,4.43-3.59,8.03-8.03,8.03H19.53 c-4.43,0-8.03-3.59-8.03-8.03V20.53c0-4.43,3.59-8.03,8.03-8.03h87.94c4.43,0,8.03,3.59,8.03,8.03V108.47z" style="opacity:0.61;fill:none;stroke:#000000;stroke-miterlimit:10;"/>
        <path d="M107.5,116.5c0,4.42-3.58,8-8,8h-72 c-4.42,0-8-3.58-8-8v-104c0-4.42,3.58-8,8-8h72c4.42,0,8,3.58,8,8V116.5z" style="opacity:0.61;fill:none;stroke:#000000;stroke-miterlimit:10;"/>
        <path d="M123.5,98.27c0,5.65-4.58,10.23-10.23,10.23H13.73 c-5.65,0-10.23-4.58-10.23-10.23V30.73c0-5.65,4.58-10.23,10.23-10.23h99.54c5.65,0,10.23,4.58,10.23,10.23V98.27z" style="opacity:0.61;fill:none;stroke:#000000;stroke-miterlimit:10;"/>
      </g>
      <g>
        <g style="opacity:0.2;">
          <defs>
            <rect id="SVGID_2_" height="128" style="opacity:0.2;" width="128" x="0"/>
          </defs>
          <clipPath id="SVGID_3_">
            <use style="overflow:visible;" xlink:href="#SVGID_2_"/>
          </clipPath>
          <g style="clip-path:url(#SVGID_3_);">
            <g>
              <line style="fill:none;stroke:#000000;stroke-miterlimit:10;" x1="-28.5" x2="-28.5" y1="160" y2="-32"/>
              <line style="fill:none;stroke:#000000;stroke-miterlimit:10;" x1="-24.5" x2="-24.5" y1="160" y2="-32"/>
              <line style="fill:none;stroke:#000000;stroke-miterlimit:10;" x1="-20.5" x2="-20.5" y1="160" y2="-32"/>
              <line style="fill:none;stroke:#000000;stroke-miterlimit:10;" x1="-16.5" x2="-16.5" y1="160" y2="-32"/>
              <line style="fill:none;stroke:#000000;stroke-miterlimit:10;" x1="-12.5" x2="-12.5" y1="160" y2="-32"/>
              <line style="fill:none;stroke:#000000;stroke-miterlimit:10;" x1="-8.5" x2="-8.5" y1="160" y2="-32"/>
              <line style="fill:none;stroke:#000000;stroke-miterlimit:10;" x1="-4.5" x2="-4.5" y1="160" y2="-32"/>
              <line style="fill:none;stroke:#000000;stroke-miterlimit:10;" x1="-0.5" x2="-0.5" y1="160" y2="-32"/>
              <line style="fill:none;stroke:#000000;stroke-miterlimit:10;" x1="3.5" x2="3.5" y1="160" y2="-32"/>
              <line style="fill:none;stroke:#000000;stroke-miterlimit:10;" x1="7.5" x2="7.5" y1="160" y2="-32"/>
              <line style="fill:none;stroke:#000000;stroke-miterlimit:10;" x1="11.5" x2="11.5" y1="160" y2="-32"/>
              <line style="fill:none;stroke:#000000;stroke-miterlimit:10;" x1="15.5" x2="15.5" y1="160" y2="-32"/>
              <line style="fill:none;stroke:#000000;stroke-miterlimit:10;" x1="19.5" x2="19.5" y1="160" y2="-32"/>
              <line style="fill:none;stroke:#000000;stroke-miterlimit:10;" x1="23.5" x2="23.5" y1="160" y2="-32"/>
              <line style="fill:none;stroke:#000000;stroke-miterlimit:10;" x1="27.5" x2="27.5" y1="160" y2="-32"/>
              <line style="fill:none;stroke:#000000;stroke-miterlimit:10;" x1="31.5" x2="31.5" y1="160" y2="-32"/>
              <line style="fill:none;stroke:#000000;stroke-miterlimit:10;" x1="35.5" x2="35.5" y1="160" y2="-32"/>
              <line style="fill:none;stroke:#000000;stroke-miterlimit:10;" x1="39.5" x2="39.5" y1="160" y2="-32"/>
              <line style="fill:none;stroke:#000000;stroke-miterlimit:10;" x1="43.5" x2="43.5" y1="160" y2="-32"/>
              <line style="fill:none;stroke:#000000;stroke-miterlimit:10;" x1="47.5" x2="47.5" y1="160" y2="-32"/>
              <line style="fill:none;stroke:#000000;stroke-miterlimit:10;" x1="51.5" x2="51.5" y1="160" y2="-32"/>
              <line style="fill:none;stroke:#000000;stroke-miterlimit:10;" x1="55.5" x2="55.5" y1="160" y2="-32"/>
              <line style="fill:none;stroke:#000000;stroke-miterlimit:10;" x1="59.5" x2="59.5" y1="160" y2="-32"/>
              <line style="fill:none;stroke:#000000;stroke-miterlimit:10;" x1="63.5" x2="63.5" y1="160" y2="-32"/>
              <line style="fill:none;stroke:#000000;stroke-miterlimit:10;" x1="67.5" x2="67.5" y1="160" y2="-32"/>
              <line style="fill:none;stroke:#000000;stroke-miterlimit:10;" x1="71.5" x2="71.5" y1="160" y2="-32"/>
              <line style="fill:none;stroke:#000000;stroke-miterlimit:10;" x1="75.5" x2="75.5" y1="160" y2="-32"/>
              <line style="fill:none;stroke:#000000;stroke-miterlimit:10;" x1="79.5" x2="79.5" y1="160" y2="-32"/>
              <line style="fill:none;stroke:#000000;stroke-miterlimit:10;" x1="83.5" x2="83.5" y1="160" y2="-32"/>
              <line style="fill:none;stroke:#000000;stroke-miterlimit:10;" x1="87.5" x2="87.5" y1="160" y2="-32"/>
              <line style="fill:none;stroke:#000000;stroke-miterlimit:10;" x1="91.5" x2="91.5" y1="160" y2="-32"/>
              <line style="fill:none;stroke:#000000;stroke-miterlimit:10;" x1="95.5" x2="95.5" y1="160" y2="-32"/>
              <line style="fill:none;stroke:#000000;stroke-miterlimit:10;" x1="99.5" x2="99.5" y1="160" y2="-32"/>
              <line style="fill:none;stroke:#000000;stroke-miterlimit:10;" x1="103.5" x2="103.5" y1="160" y2="-32"/>
              <line style="fill:none;stroke:#000000;stroke-miterlimit:10;" x1="107.5" x2="107.5" y1="160" y2="-32"/>
              <line style="fill:none;stroke:#000000;stroke-miterlimit:10;" x1="111.5" x2="111.5" y1="160" y2="-32"/>
              <line style="fill:none;stroke:#000000;stroke-miterlimit:10;" x1="115.5" x2="115.5" y1="160" y2="-32"/>
              <line style="fill:none;stroke:#000000;stroke-miterlimit:10;" x1="119.5" x2="119.5" y1="160" y2="-32"/>
              <line style="fill:none;stroke:#000000;stroke-miterlimit:10;" x1="123.5" x2="123.5" y1="160" y2="-32"/>
              <line style="fill:none;stroke:#000000;stroke-miterlimit:10;" x1="127.5" x2="127.5" y1="160" y2="-32"/>
              <line style="fill:none;stroke:#000000;stroke-miterlimit:10;" x1="131.5" x2="131.5" y1="160" y2="-32"/>
              <line style="fill:none;stroke:#000000;stroke-miterlimit:10;" x1="135.5" x2="135.5" y1="160" y2="-32"/>
              <line style="fill:none;stroke:#000000;stroke-miterlimit:10;" x1="136.5" x2="136.5" y1="166" y2="-26"/>
              <line style="fill:none;stroke:#000000;stroke-miterlimit:10;" x1="143.5" x2="143.5" y1="160" y2="-32"/>
              <line style="fill:none;stroke:#000000;stroke-miterlimit:10;" x1="147.5" x2="147.5" y1="160" y2="-32"/>
              <line style="fill:none;stroke:#000000;stroke-miterlimit:10;" x1="151.5" x2="151.5" y1="160" y2="-32"/>
              <line style="fill:none;stroke:#000000;stroke-miterlimit:10;" x1="155.5" x2="155.5" y1="160" y2="-32"/>
            </g>
            <g>
              <line style="fill:none;stroke:#000000;stroke-miterlimit:10;" x1="-32" x2="160" y1="-27.5" y2="-27.5"/>
              <line style="fill:none;stroke:#000000;stroke-miterlimit:10;" x1="-32" x2="160" y1="-23.5" y2="-23.5"/>
              <line style="fill:none;stroke:#000000;stroke-miterlimit:10;" x1="-32" x2="160" y1="-19.5" y2="-19.5"/>
              <line style="fill:none;stroke:#000000;stroke-miterlimit:10;" x1="-32" x2="160" y1="-15.5" y2="-15.5"/>
              <line style="fill:none;stroke:#000000;stroke-miterlimit:10;" x1="-32" x2="160" y1="-11.5" y2="-11.5"/>
              <line style="fill:none;stroke:#000000;stroke-miterlimit:10;" x1="-32" x2="160" y1="-7.5" y2="-7.5"/>
              <line style="fill:none;stroke:#000000;stroke-miterlimit:10;" x1="-32" x2="160" y1="-3.5" y2="-3.5"/>
              <line style="fill:none;stroke:#000000;stroke-miterlimit:10;" x1="-32" x2="160" y1="0.5" y2="0.5"/>
              <line style="fill:none;stroke:#000000;stroke-miterlimit:10;" x1="-32" x2="160" y1="4.5" y2="4.5"/>
              <line style="fill:none;stroke:#000000;stroke-miterlimit:10;" x1="-32" x2="160" y1="8.5" y2="8.5"/>
              <line style="fill:none;stroke:#000000;stroke-miterlimit:10;" x1="-32" x2="160" y1="12.5" y2="12.5"/>
              <line style="fill:none;stroke:#000000;stroke-miterlimit:10;" x1="-32" x2="160" y1="16.5" y2="16.5"/>
              <line style="fill:none;stroke:#000000;stroke-miterlimit:10;" x1="-32" x2="160" y1="20.5" y2="20.5"/>
              <line style="fill:none;stroke:#000000;stroke-miterlimit:10;" x1="-32" x2="160" y1="24.5" y2="24.5"/>
              <line style="fill:none;stroke:#000000;stroke-miterlimit:10;" x1="-32" x2="160" y1="28.5" y2="28.5"/>
              <line style="fill:none;stroke:#000000;stroke-miterlimit:10;" x1="-32" x2="160" y1="32.5" y2="32.5"/>
              <line style="fill:none;stroke:#000000;stroke-miterlimit:10;" x1="-32" x2="160" y1="36.5" y2="36.5"/>
              <line style="fill:none;stroke:#000000;stroke-miterlimit:10;" x1="-32" x2="160" y1="40.5" y2="40.5"/>
              <line style="fill:none;stroke:#000000;stroke-miterlimit:10;" x1="-32" x2="160" y1="44.5" y2="44.5"/>
              <line style="fill:none;stroke:#000000;stroke-miterlimit:10;" x1="-32" x2="160" y1="48.5" y2="48.5"/>
              <line style="fill:none;stroke:#000000;stroke-miterlimit:10;" x1="-32" x2="160" y1="52.5" y2="52.5"/>
              <line style="fill:none;stroke:#000000;stroke-miterlimit:10;" x1="-32" x2="160" y1="56.5" y2="56.5"/>
              <line style="fill:none;stroke:#000000;stroke-miterlimit:10;" x1="-32" x2="160" y1="60.5" y2="60.5"/>
              <line style="fill:none;stroke:#000000;stroke-miterlimit:10;" x1="-32" x2="160" y1="64.5" y2="64.5"/>
              <line style="fill:none;stroke:#000000;stroke-miterlimit:10;" x1="-32" x2="160" y1="68.5" y2="68.5"/>
              <line style="fill:none;stroke:#000000;stroke-miterlimit:10;" x1="-32" x2="160" y1="72.5" y2="72.5"/>
              <line style="fill:none;stroke:#000000;stroke-miterlimit:10;" x1="-32" x2="160" y1="76.5" y2="76.5"/>
              <line style="fill:none;stroke:#000000;stroke-miterlimit:10;" x1="-32" x2="160" y1="80.5" y2="80.5"/>
              <line style="fill:none;stroke:#000000;stroke-miterlimit:10;" x1="-32" x2="160" y1="84.5" y2="84.5"/>
              <line style="fill:none;stroke:#000000;stroke-miterlimit:10;" x1="-32" x2="160" y1="88.5" y2="88.5"/>
              <line style="fill:none;stroke:#000000;stroke-miterlimit:10;" x1="-32" x2="160" y1="92.5" y2="92.5"/>
              <line style="fill:none;stroke:#000000;stroke-miterlimit:10;" x1="-32" x2="160" y1="96.5" y2="96.5"/>
              <line style="fill:none;stroke:#000000;stroke-miterlimit:10;" x1="-32" x2="160" y1="100.5" y2="100.5"/>
              <line style="fill:none;stroke:#000000;stroke-miterlimit:10;" x1="-32" x2="160" y1="104.5" y2="104.5"/>
              <line style="fill:none;stroke:#000000;stroke-miterlimit:10;" x1="-32" x2="160" y1="108.5" y2="108.5"/>
              <line style="fill:none;stroke:#000000;stroke-miterlimit:10;" x1="-32" x2="160" y1="112.5" y2="112.5"/>
              <line style="fill:none;stroke:#000000;stroke-miterlimit:10;" x1="-32" x2="160" y1="116.5" y2="116.5"/>
              <line style="fill:none;stroke:#000000;stroke-miterlimit:10;" x1="-32" x2="160" y1="120.5" y2="120.5"/>
              <line style="fill:none;stroke:#000000;stroke-miterlimit:10;" x1="-32" x2="160" y1="124.5" y2="124.5"/>
              <line style="fill:none;stroke:#000000;stroke-miterlimit:10;" x1="-32" x2="160" y1="128.5" y2="128.5"/>
              <line style="fill:none;stroke:#000000;stroke-miterlimit:10;" x1="-32" x2="160" y1="132.5" y2="132.5"/>
              <line style="fill:none;stroke:#000000;stroke-miterlimit:10;" x1="-32" x2="160" y1="136.5" y2="136.5"/>
              <line style="fill:none;stroke:#000000;stroke-miterlimit:10;" x1="-32" x2="160" y1="140.5" y2="140.5"/>
              <line style="fill:none;stroke:#000000;stroke-miterlimit:10;" x1="-32" x2="160" y1="144.5" y2="144.5"/>
              <line style="fill:none;stroke:#000000;stroke-miterlimit:10;" x1="-32" x2="160" y1="148.5" y2="148.5"/>
              <line style="fill:none;stroke:#000000;stroke-miterlimit:10;" x1="-32" x2="160" y1="152.5" y2="152.5"/>
              <line style="fill:none;stroke:#000000;stroke-miterlimit:10;" x1="-32" x2="160" y1="156.5" y2="156.5"/>
            </g>
            <path d="M160-32v192H-32V-32H160 M160-32H-32v192h192V-32L160-32z"/>
          </g>
        </g>
        <g>
          <rect height="128" style="opacity:0.3;fill:#F44336;" width="4" x="0"/>
          <rect height="128" style="opacity:0.3;fill:#F44336;" width="4" x="124"/>
          <rect height="120" style="opacity:0.3;fill:#F44336;" transform="matrix(-1.836970e-16 1 -1 -1.836970e-16 66 -62)" width="4" x="62" y="-58"/>
          <rect height="120" style="opacity:0.3;fill:#F44336;" transform="matrix(-1.836970e-16 1 -1 -1.836970e-16 190 62)" width="4" x="62" y="66"/>
        </g>
      </g>
    </g>
  </g>
</svg>
